X: 4077
T: Blind Mary
R: march
M: 
K: Dmajor
L:2/8
|:Ad2 d>c|cB AF/G/|A>B AF|E3F/G/|
Af f>e|dB AD/E/|F>G E>D|D3:|
d/e/|f>g fB|e>c AB/c/|d>D DE/F/|E3 A/G/|
F>G Ad|f>e dD/E/|F>G E>D|D3:|

